X:18825
T:Wind That Shakes the Barley, The
R:reel
Z:id:hn-reel-109
M:C|
K:D
~A3B AFED|~B3A BcdB|~A3B AFED|1 gfed BcdB:|2 gfed Bcde||
~f3d ~g3e|~f3d Bcde|~f3d g2fg|afed Bcde|
~f3d ~g3e|~f3d Bcdc|defg ~a3b|afed BcdB||


